X: 26177
T: McKenna's Ceilidh
R: jig
M: 6/8
K: Dmixolydian
|:d2A AGF|GFD D3|C2c AGF|CEA GEC|
d2A AGF|GFD D3|CcA GFG|ADD DFA:|
|:ddd AdA|GFG A3|c2A GEC|CEA GEC|
[1 ddd AdA|GFG A3|CEG BcG|ADD DFA:|
[2 DDD FEF|GFG A3|c2A GFG|ADD D2A||

